public/images/icon-television--leaf.svg

<svg width="24" height="24" viewBox="0 0 24 24" fill="none" xmlns="http://www.w3.org/2000/svg">
<path d="M7.5 0C7.82812 0.28125 9.32812 1.78125 12 4.5C14.6719 1.78125 16.1719 0.28125 16.5 0L18.6094 2.10938C18.0469 2.67188 17.0625 3.65625 15.6094 5.10938H24V23.1094H0V5.10938H8.39062C6.9375 3.65625 5.95312 2.67188 5.39062 2.10938L7.5 0ZM18 8.10938H3V20.1094H18V8.10938ZM22.125 11.4844C22.125 10.875 21.6094 10.3594 21 10.3594C20.3906 10.3594 19.875 10.875 19.875 11.4844C19.875 12.0938 20.3906 12.6094 21 12.6094C21.6094 12.6094 22.125 12.0938 22.125 11.4844ZM21 16.3594C21.6094 16.3594 22.125 15.8438 22.125 15.2344C22.125 14.625 21.6094 14.1094 21 14.1094C20.3906 14.1094 19.875 14.625 19.875 15.2344C19.875 15.8438 20.3906 16.3594 21 16.3594Z" fill="#91C15D"/>
</svg>

<svg width="24" height="24" viewBox="0 0 24 24" fill="none" xmlns="http://www.w3.org/2000/svg"><path d="M7.5 0c.328.281 1.828 1.781 4.5 4.5C14.672 1.781 16.172.281 16.5 0l2.11 2.11-3 3H24v18H0v-18h8.39l-3-3L7.5 0ZM18 8.11H3v12h15v-12Zm4.125 3.374A1.14 1.14 0 0 0 21 10.36a1.14 1.14 0 0 0-1.125 1.125c0 .61.516 1.125 1.125 1.125a1.14 1.14 0 0 0 1.125-1.125ZM21 16.36a1.14 1.14 0 0 0 1.125-1.125A1.14 1.14 0 0 0 21 14.11a1.14 1.14 0 0 0-1.125 1.125c0 .61.516 1.125 1.125 1.125Z" fill="#91C15D"/></svg>
